X:1
T:Suite II. in F major, HWV 427, Adagio
T:Handel, George Frideric 
T:8 Great Suites (1720) 
T: HWV 427
T:Oli 2020
T:Oli 2020
Z:Oli 2020
%%score { 1 | ( 2 3 ) }
L:1/8
Q:1/8=60
M:4/4
K:F
V:1 treble nm="Piano"
V:2 treble 
V:3 treble 
V:1
!mp! Mf2- f/4g/4f/4e/8f/8Tf3/4e/8f/8 Mg2- g/4a/4g/4f/8g/8Tg3/4f/8g/8 | %1
 MaTc3/4=B/8c/8 f{_b}a/g/ gf/4e/4d/4c/4- c/4d/4c/4d/4>e/4d/4e/4f/4 | %2
 f/4>d/4e/ z z/ f/4g/4 Tg/4>f/4g/4a/4 d2- d/(3(e/4f/4g/4 e/4f/4d/) | %3
 Tc2- c/(3d/4e/4f/4 d/A/ MBg- g/4>f/4e/4>d/4 c/(3B/4A/4B/4 | %4
 A/4=B/4c/4B/4 TB3/4A/8G/8 c2- c/4d/4B/8c/8A/4 B/4c/4d/4e/8f/8 T=B>c | %5
 Mc2 z/ =B/4c/4 Tc3/4B/8c/8 Md2- d/g/4a/4_b/4e/4f/4g/4 | %6
 ca- a/4>g/4f/4>e/4 d/4>c/4B/8c/8A/4 MB-B/8G/8A/8B/8c/8d/8e/8f/8 e/8f/4<Tf/4e/8f/8g/8 G3/4A/8B/8 | %7
 TA>A MdMd- d/4B/4A/4G/4e/4^c/4d/4e/4 A/4b/4a/ Tf/4>e/4f/8g/8e/4 | %8
 Mf2 z/ a/4b/4 Tb/4>a/4b/4c'/4 ^f>a g/>f/Te/d/- | %9
 d/d/8e/8^f/4 Tf3/4e/8f/8 g/f/4g/4 Tg/4>f/4g/4a/8b/8 ^c/d/4c/4 d/4e/4d/4e/8=f/8 d/c/c/4=B/4c/ | %10
 a/>g/^f/>e/ d/<c/-c/4B/4c/4A/4 MBd- (6:4:6(d/^c/d/=f/d/B/) | %11
 ^Ge- e/4d/4c/4=B/4A/a/- a/4^g/4a/4c'/4 a/4g/4a/- a/4^f/4=g/- g/4f/4g/4_b/4 | %12
 g/4^f/4g/- g/>b/ a-a/4g/4=f/4e/4- e/4g/4f/- f/4e/4d/- d/4=c/4B/- B/4A/4^G/4A/4 | %13
!>(! T^G2 z a- a/4=g/4f/4e/8f/8d/4e/4=B/ cTB/>A/!>)! |!pp! [CEA]8 |] %15
V:2
!p! AG FE DC DE | F2 z c cG FB | B{B}A/>G/{G} AA AG/>F/ GG | GF/>E/{E} FF FF EE | %4
[K:bass] FD G,C F,F, F,F, | E,[K:treble]E EE FF GG | EC FF FF B,E |[K:bass] FF A,A, G,G, ^CC | %8
 D[K:treble]F FF AA ^FF | GD DG G=F EE |[K:bass] DD DD DD A,D | DD CC CC C_B, | %12
 E,A, A,A, A,A, B,D | D2 z C =B,A, A,^G, | [A,,E,A,]8 |] %15
V:3
 FE DC B,A, B,C | F,2 x F EE DD | CC CC B,B, B,B, | A,A, A,A, G,G, CC | %4
[K:bass] F,F, E,E, D,D, D,D, | C,[K:treble]C CC CC B,B, | B,A,/>G,/ A,A, G,G, G,G, | %7
[K:bass] F,F, F,F, E,E, E,E, | D,[K:treble]D DD CC CC | B,B, B,B, A,A, A,G, | %10
[K:bass] ^F,F, F,F, G,G, =F,F, | E,E, E,E, ^D,D, E,=D, | ^C,C, C,C, D,D, D,F, | E,2 x F, D,F, E,2 | %14
 x8 |] %15

